src/public/img/landing/new/external-websites/cnn.svg

<svg width="40" height="40" viewBox="0 0 40 40" fill="none" xmlns="http://www.w3.org/2000/svg">
<g clip-path="url(#clip0_3628_19479)">
<path d="M0.166667 0H0V0.166667H0.166667V0Z" fill="white"/>
<path d="M0 0V40H40V0H0ZM14.3717 22.56V15.43C14.3717 12.7467 17.84 11.4583 19.675 14.5767C19.8083 14.8017 22.6983 19.78 22.6983 19.78V15.43C22.6983 12.7467 26.165 11.4583 28 14.5767C28.1333 14.8017 31.0233 19.78 31.0233 19.78V12.81H32.7533V24.5117C32.7577 24.5908 32.7352 24.669 32.6895 24.7338C32.6439 24.7985 32.5777 24.8459 32.5017 24.8683C32.3183 24.9183 32.125 24.805 31.9833 24.565C31.955 24.5183 30.4833 21.9883 29.07 19.5433L26.4767 15.0783C26.1133 14.4617 25.5717 14.3533 25.1867 14.4583C24.9648 14.5204 24.77 14.6545 24.6327 14.8394C24.4954 15.0244 24.4235 15.2497 24.4283 15.48V24.5117C24.4324 24.5907 24.4098 24.6688 24.3642 24.7335C24.3185 24.7982 24.2525 24.8457 24.1767 24.8683C23.9917 24.9183 23.7983 24.805 23.6583 24.565C23.6333 24.5233 22.2683 22.1717 20.95 19.8983C19.27 17.0017 18.1667 15.1017 18.15 15.0733C17.7867 14.455 17.2433 14.3483 16.855 14.4533C16.633 14.5153 16.4379 14.6493 16.3004 14.8343C16.1628 15.0192 16.0906 15.2446 16.095 15.475V24.3167C16.0875 24.4343 16.0373 24.5451 15.9538 24.6283C15.8703 24.7114 15.7593 24.7613 15.6417 24.7683H11.1533C9.88737 24.7683 8.67325 24.2654 7.77808 23.3703C6.8829 22.4751 6.38 21.261 6.38 19.995C6.38 18.729 6.8829 17.5149 7.77808 16.6197C8.67325 15.7246 9.88737 15.2217 11.1533 15.2217H13.4867V16.9483H11.1733C10.3653 16.9483 9.59038 17.2693 9.01901 17.8407C8.44765 18.412 8.12667 19.187 8.12667 19.995C8.12667 20.803 8.44765 21.578 9.01901 22.1493C9.59038 22.7207 10.3653 23.0417 11.1733 23.0417H13.895C13.9581 23.0421 14.0207 23.0299 14.0791 23.0058C14.1375 22.9817 14.1904 22.9462 14.2348 22.9013C14.2793 22.8564 14.3143 22.8031 14.3378 22.7445C14.3612 22.6859 14.3728 22.6231 14.3717 22.56ZM35.1667 24.5683C35.1667 27.2517 31.6983 28.54 29.8633 25.4233C29.7317 25.1983 26.84 20.2183 26.84 20.2183V24.5683C26.84 27.2517 23.3733 28.54 21.5383 25.4233C21.405 25.1983 18.515 20.2183 18.515 20.2183V24.32C18.515 26.1817 17.41 27.19 15.6817 27.19H11.1567C9.24976 27.19 7.42096 26.4325 6.07257 25.0841C4.72418 23.7357 3.96667 21.9069 3.96667 20C3.96667 18.0931 4.72418 16.2643 6.07257 14.9159C7.42096 13.5675 9.24976 12.81 11.1567 12.81H13.49V14.5367H11.1567C10.4392 14.5367 9.72878 14.678 9.06594 14.9525C8.4031 15.2271 7.80082 15.6295 7.29351 16.1368C6.78619 16.6442 6.38376 17.2464 6.1092 17.9093C5.83465 18.5721 5.69333 19.2825 5.69333 20C5.69333 20.7175 5.83465 21.4279 6.1092 22.0907C6.38376 22.7536 6.78619 23.3558 7.29351 23.8632C7.80082 24.3705 8.4031 24.7729 9.06594 25.0475C9.72878 25.322 10.4392 25.4633 11.1567 25.4633H15.6417C15.9427 25.4574 16.2299 25.3352 16.443 25.1225C16.656 24.9097 16.7786 24.6227 16.785 24.3217V15.48C16.7807 15.4011 16.8033 15.3231 16.849 15.2586C16.8947 15.1942 16.9608 15.1471 17.0367 15.125C17.22 15.075 17.4133 15.1883 17.555 15.4283L20.3533 20.25C21.98 23.055 23.0483 24.8967 23.0617 24.9167C23.4267 25.5333 23.97 25.6417 24.3583 25.535C24.5803 25.4728 24.7752 25.3384 24.9122 25.1531C25.0492 24.9678 25.1206 24.7421 25.115 24.5117V15.4817C25.1104 15.403 25.1324 15.3251 25.1775 15.2604C25.2225 15.1957 25.288 15.148 25.3633 15.125C25.545 15.075 25.7367 15.1883 25.8767 15.4283L28.47 19.8967L31.385 24.9217C31.67 25.405 32.0667 25.5767 32.4117 25.5767C32.5024 25.5767 32.5926 25.5643 32.68 25.54C32.9048 25.4795 33.1028 25.3453 33.2421 25.1588C33.3815 24.9723 33.4541 24.7444 33.4483 24.5117V12.81H35.1717L35.1667 24.5683Z" fill="black"/>
</g>
<defs>
<clipPath id="clip0_3628_19479">
<rect width="40" height="40" fill="white"/>
</clipPath>
</defs>
</svg>

<svg xmlns="http://www.w3.org/2000/svg" width="40" height="40" fill="none">
  <g clip-path="url(#a)">
    <path fill="#fff" d="M.167 0H0v.167h.167V0Z"/>
    <path fill="#000" d="M0 0v40h40V0H0Zm14.372 22.56v-7.13c0-2.683 3.468-3.972 5.303-.853.133.225 3.023 5.203 3.023 5.203v-4.35c0-2.683 3.467-3.972 5.302-.853.133.225 3.023 5.203 3.023 5.203v-6.97h1.73v11.702a.351.351 0 0 1-.251.356c-.184.05-.377-.063-.519-.303-.028-.047-1.5-2.577-2.913-5.022l-2.593-4.465c-.364-.616-.905-.725-1.29-.62a1.039 1.039 0 0 0-.759 1.022v9.032a.353.353 0 0 1-.251.356c-.185.05-.379-.063-.519-.303-.025-.042-1.39-2.393-2.708-4.667l-2.8-4.825c-.363-.618-.907-.725-1.295-.62a1.04 1.04 0 0 0-.76 1.022v8.842a.483.483 0 0 1-.453.451h-4.489a4.774 4.774 0 0 1 0-9.546h2.334v1.726h-2.314a3.047 3.047 0 0 0 0 6.094h2.722a.475.475 0 0 0 .477-.482Zm20.795 2.008c0 2.684-3.469 3.972-5.304.855l-3.023-5.205v4.35c0 2.684-3.467 3.972-5.302.855a6006.26 6006.26 0 0 1-3.023-5.205v4.102c0 1.862-1.105 2.87-2.833 2.87h-4.525a7.19 7.19 0 1 1 0-14.38h2.333v1.727h-2.333a5.464 5.464 0 1 0 0 10.926h4.485a1.167 1.167 0 0 0 1.143-1.141V15.48a.35.35 0 0 1 .252-.355c.183-.05.376.063.518.303l2.798 4.822c1.627 2.805 2.695 4.647 2.709 4.667.365.616.908.725 1.296.618a1.037 1.037 0 0 0 .757-1.023v-9.03a.351.351 0 0 1 .248-.357c.182-.05.374.063.514.303l2.593 4.469 2.915 5.025c.285.483.682.655 1.027.655a1.038 1.038 0 0 0 1.037-1.065V12.81h1.723l-.005 11.758Z"/>
  </g>
  <defs>
    <clipPath id="a">
      <path fill="#fff" d="M0 0h40v40H0z"/>
    </clipPath>
  </defs>
</svg>
